X:1
T: Morgiana in Ireland
C:
R:Jig
Q:180
K:A
M:6/8
L:1/16
E4E2 A4A2|B2A2B2 c4c2|E4E2 A4A2|B2A2B2 c2A2F2|E2F2E2 A4A2|B2A2B2 c4e2|f2e2d2 c2d2B2|A6A6|
E4E2 A4A2|B2A2B2 c4c2|E4E2 A4A2|B2A2B2 c2A2F2|E2F2E2 A4A2|B2A2B2 c4e2|f2e2d2 c2d2B2|A6A6|
e4e2 e2d2c2|f4g2 a4f2|e2f2e2 e2d2c2|f4a2 a2g2f2|e2f2e2 e2d2c2|f2e2f2 a6|f2e2d2 c2d2B2|A6A6|
A2B2A2 c4e2|B2c2B2 d4f2|A2B2A2 c4e2|B4d2 c2A2F2|A2B2A2 c4e2|d4f2 c4e2|f2e2d2 c2d2B2|A6A6||
